X:7451
T:I Have a Bonnet Trimmed with Blue
R:polka
H:See also #67, #75
Z:id:hn-polka-70
M:2/4
L:1/8
K:D
DE/F/ GB|AD F2|AB/A/ GE|DF F>E|DE/F/ GB|AD F2|AB/A/ GE|ED D2:|
|:G>B dB|AD F2|AB/A/ GE|DF F2|G>B dB|AD F2|AB/A/ GE|ED D2:|


